X: 678
M: 6/8
L: 1/8
P: Rory O'More
Z: John Chambers <jc:trillian.mit.edu>
K: G
 e \
| "G"d>GG BGG | dGG    G2e |     d>cB BAG | "D7"FAA ABc \
| "G"d>GG BGG | dBd "C"edc | "D7"B>cd def | "G"g>GG G2 :|
|: g \
| "Em"g>fe edB | "Am"cBA "B7"G2F | "Em"E>FG GAB | Bed "D"d2f \
| "Em"g>fe edB | "Am"cBA "B7"G2F | "Em"E>FG GAB | Bed "D7"d2 :|
